X:1
T:Margery's Favorite -- Reel
R:reel
B:Ryan's Mammoth Collection
N: 312
Z: Contributed by Ray Davies,  ray:davies99.freeserve.co.uk
M:2/4
L:1/16
K:F
vF2Ad c2Ad | cAFA cAf2 | uF2Ad c2Ad | AdcA GABG |
vF2vAud c2Ad | cAFA cAf2 | F2Ad c2Ad | cAG"4"A F2z2 :|
|:va2vfua g2eg | fedf e^cA2 | a2fa g2eg | fedf e2z2 |
a2fa g2eg | fedf e^cA2 | A2^ce agfe | gfef d2z2 :|
